X: 1
T: Finn Jenta vals
S: etter Hans Brimi
R: waltz
S: https://app.box.com/s/u6iiren0igvsukrhdducy7orq72jayq8/file/950251133986 (Bruce Sagan's collection) 2022-6-27
S: BlueRoseMusic.org (#1079) (Karen Myers' collection)
N: Karen's version has K:Gm, but I learned it with all E naturals. (Note there are no Cm or Eb chords.
Z: 2022 John Chambers <jc:trillian.mit.edu>
M: 3/4
L: 1/8
K: Gdor
D^F |\
"Gm"G2 G^F GA | B2 BA Bc | d2 dc de | "F"f2 fe gf ||\
"D7"d2 dc Ac | "Gm"B2 BA G2 | "D7"^FG A2 F2 | D4 ||
D^F |\
"Gm"G2 G^F GA | B2 BA Bc | d2 dc de | "F"f2 fe gf ||\
"D7"d2 dc Ac | "Gm"B2 BA G2 | "D7"^FG A2 F2 | "Gm"G4 :|
|: Bd |\
"Bb"d2 c2 B2 | "F"A4 FA | "(D7)"c2 B2{cB} A2 | "Gm"G3 ^F GA ||\
"D7"B2 A2 ^F2 | D2 A2 ^F2 | "Gm"G2 d2 "A7"^c2 | "D7"d4 ||
d2 |\
"Gm"d2 c2 B2 | "F"A4 FA | "(D7)"c2 B2{cB} A2 | "Gm"G3 ^F GA ||\
"D7"B2 A2 ^F2 | "D7"D2 A2 ^F2 | "Gm"G3 G G2 | G4 :|\
